X: 1
T: Cuckoo Quickstep
M: 4/4
L: 1/8
R: reel
K: Amaj
|:E2|A2Ac B2BG|ABcd efga|A2Ac B2BG|ABcd e2ed|
cEcE dEdE|cEcE dEdE|ceag fedc|c4 B2:|
|:e2|e6 ^d2|e6 ^d2|efga bagf|e6 e2|
a6 e2|c6 e2|cAce cAce|a2g2a2:|
|:ed|cEdE eEfE|eE^dE eEcE|BEcE dEeE|dEcE dEBE|
cEdE eEfE|eE^dE .eaga|BcdB A2G2|B4 A2:|
